alura/assets/api/cursos/c-plus-plus-avancando-linguagem.svg

<svg xmlns="http://www.w3.org/2000/svg" viewBox="0 0 50 50"><path fill="#ce87ea" d="M43.8 28.6L8 41.6l-1.8-1.1v-9.6l6.6-8.3-2.3-1.3v-9.7l7.1-8.8L26.1 4l9.4 5.4.1 5.6 8.2 4.7z"/><path fill="#e097fb" d="M35.6 12.8l-24.4 8.9-.7-.4v-9.7l7.1-8.8L26.1 4l9.4 5.4z"/><path fill="#444" d="M37.1 14.3V8.7L26.5 2.6 17 1.2l-7.9 9.9v11.2l1.5.9-5.9 7.3v10.9l11.6 6.7 8.4.7 7.8-9.8c.4-.5.3-1.3-.2-1.8-.4-.3-.9-.4-1.4-.1l-.1-8.4-1.2-.7 6.5-8.2 6.4.5.1 8.7c0 .1 0 .1.1.1v.2c0 .7.6 1.2 1.2 1.2s1.2-.6 1.2-1.2V18.9l-8-4.6zm-9-5l-8.8-5.1 6.6 1 7.9 4.5-5.7-.4zM11.6 20.9v-8.3l9.4 5.5v8.3l-9.4-5.5zM7.3 31.3l9.5 5.5v8.4l-9.5-5.5v-8.4zm9.7 5.1l-9.4-5.5 6.5-8.1 9.4 5.5-6.5 8.1zm4.2-18.8L11.6 12 18 4.1l9.6 5.5-6.4 8zM23.7 46l-6.4-.5v-8.7l6.6-8.3 6.4.5.1 8.5-6.7 8.5zm.2-18l-1.4-.8 5.7.5 1.3.8-5.6-.5zm4.2-.8s-.1 0 0 0l-6.5-.5V18l6.6-8.3 6.4.5.1 8.6-6.6 8.4zm7-8.4v-2.7l6.5 3.7-5.5-.4-1-.6zm-5.9 8.8l-.6-.4 6.4-8 .6.4-6.4 8z"/></svg>

<?xml version="1.0" encoding="utf-8"?>
<!-- Generator: Adobe Illustrator 22.0.1, SVG Export Plug-In . SVG Version: 6.00 Build 0)  -->
<svg version="1.1" id="Layer_1" xmlns="http://www.w3.org/2000/svg" xmlns:xlink="http://www.w3.org/1999/xlink" x="0px" y="0px"
	 viewBox="0 0 50 50" style="enable-background:new 0 0 50 50;" xml:space="preserve">
<style type="text/css">
	.st0{fill:#CE87EA;}
	.st1{fill:#E097FB;}
	.st2{fill:#444444;}
</style>
<polygon class="st0" points="43.8,28.6 8,41.6 6.2,40.5 6.2,30.9 12.8,22.6 10.5,21.3 10.5,11.6 17.6,2.8 26.1,4 35.5,9.4 35.6,15 
	43.8,19.7 "/>
<polygon class="st1" points="35.6,12.8 11.2,21.7 10.5,21.3 10.5,11.6 17.6,2.8 26.1,4 35.5,9.4 "/>
<path class="st2" d="M37.1,14.3l0-5.6L26.5,2.6L17,1.2l-7.9,9.9v11.2l1.5,0.9l-5.9,7.3v10.9l11.6,6.7l8.4,0.7l7.8-9.8
	c0.4-0.5,0.3-1.3-0.2-1.8c-0.4-0.3-0.9-0.4-1.4-0.1l-0.1-8.4L29.6,28l6.5-8.2l6.4,0.5l0.1,8.7c0,0.1,0,0.1,0.1,0.1v0.2
	c0,0.7,0.6,1.2,1.2,1.2s1.2-0.6,1.2-1.2V18.9L37.1,14.3z M28.1,9.3l-8.8-5.1l6.6,1l7.9,4.5L28.1,9.3z M11.6,20.9v-8.3l9.4,5.5l0,8.3
	L11.6,20.9z M7.3,31.3l9.5,5.5l0,8.4l-9.5-5.5C7.3,39.7,7.3,31.3,7.3,31.3z M17,36.4l-9.4-5.5l6.5-8.1l9.4,5.5L17,36.4z M21.2,17.6
	l-9.6-5.6L18,4.1l9.6,5.5L21.2,17.6z M23.7,46l-6.4-0.5l0-8.7l6.6-8.3l6.4,0.5l0.1,8.5L23.7,46z M23.9,28l-1.4-0.8l5.7,0.5l1.3,0.8
	L23.9,28z M28.1,27.2C28.1,27.2,28,27.2,28.1,27.2L28.1,27.2l-6.5-0.5l0-8.7l6.6-8.3l6.4,0.5l0.1,8.6L28.1,27.2z M35.1,18.8l0-2.7
	l6.5,3.7l-5.5-0.4L35.1,18.8z M29.2,27.6l-0.6-0.4l6.4-8l0.6,0.4L29.2,27.6z"/>
</svg>
